dist/svgs/geomicons-open/icons/picture.svg

<svg xmlns="http://www.w3.org/2000/svg" viewBox="0 0 32 32"><path d="M0 4v24h32V4zm4 20l6-14 5 8 3-4 6 10zM25 7a4 4 0 010 8 4 4 0 010-8"/></svg>

<svg id="picture" xmlns="http://www.w3.org/2000/svg" viewBox="0 0 32 32" width="32" height="32" fill="currentcolor">
  <path d="M0 4 L0 28 L32 28 L32 4 z M4 24 L10 10 L15 18 L18 14 L24 24z M25 7 A4 4 0 0 1 25 15 A4 4 0 0 1 25 7"></path>
</svg>
